X: 6171
T: Captain White's
R: jig
M: 6/8
K: Dmajor
DFA d2 f|edc Bcd|A2 d F2 B|AGF E2 F|
DE/F/A d2 f|edc Bcd|A2 d F2 B|ABc d2:|
e^de A2 f|e^de a2 f|efe dcB|A2 B c2 f|
e^de a2 f|e^de A2 f|efe dcB|ABG FGE||
D2 f f^ef|d2 A A^GA|D2 f f^ef|g2 e e^de|
A2 f f^ef|d2 A A^GA|BB/c/d edc|dcB A2||

